!!!SOCIAL_FUNCTION:	songs with hunting dance
!!!PDT:	1956
!!!OTL: No_38_Cow_Creek_Hunting_Dance_Song_(e).krn
!!!LANG: Non-Tone
!!!LING_GROUP: Muskogean
!!!REG: Florida
**kern
*staff1
=1-
*clefF4
*k[b-e-a-]
*M3/4
12c\L
12B-\
12B-\J
4..B-\
16B-\
=2||
*M2/4
4A-\
8G\
8r
=3!|:
8.B-\L
16A-\Jk
16A-\LK
8.G\J
=4||
*M3/4
8E-\L
(8E-\J
8.E-\L)
16E-\Jk
4E-\
=5||
*M2/4
12A-\L
12G\
12A-\J
16A-\LK
8.G\J
=6||
*M3/4
8E-\L
[8E-\J
8.E-\L]
16E-\Jk
8E-\
8r
=7||
*M2/4
4BB-/
4BB-/
=8
4BB-/
8D/L
8BB-/J
=9||
*M3/4
2E-\
4E-\
=10:|!
*M2/4
2E-\
=11
[2B-\
=12
8B-\L]
16E-\Jk
16r
4B-\
*-
